Origami/24x24/apps/abricotine.svg

<svg width="24" height="24" version="1" xmlns="http://www.w3.org/2000/svg">
 <rect transform="matrix(0,-1,-1,0,0,0)" x="-22" y="-22" width="20" height="20" rx="1" ry="1" style="fill:#f07826"/>
 <path d="m2 3.5v-0.5c0-0.554 0.446-1 1-1h18c0.554 0 1 0.446 1 1v0.5c0-0.554-0.446-1-1-1h-18c-0.554 0-1 0.446-1 1z" style="fill:#ffffff;opacity:.2"/>
 <path d="m2 21v0.5c0 0.554 0.446 1 1 1h18c0.554 0 1-0.446 1-1v-0.5c0 0.554-0.446 1-1 1h-18c-0.554 0-1-0.446-1-1z" style="opacity:.2"/>
 <path d="m14 6 2-1v14l-2 1z" style="opacity:.2"/>
 <path d="m14 5.5 2-1v14l-2 1z" style="fill:#ffffff"/>
 <path d="m17.1245 7.268 1.866 1.232-12.1245 7-1.866-1.232z" style="opacity:.2"/>
 <path d="M 17.1245,6.768 18.9905,8 6.866,15 5,13.768 Z" style="fill:#ffffff"/>
 <path d="m19.2585 16.268-0.134 2.232-12.1245-7 0.134-2.232z" style="opacity:.2"/>
 <path d="M 19.2585,15.768 19.1245,18 7,11 7.134,8.768 Z" style="fill:#ffffff"/>
</svg>

<svg xmlns="http://www.w3.org/2000/svg" width="24" height="24" version="1">
 <rect style="fill:#f07826" width="20" height="20" x="-22" y="-22" rx="1" ry="1" transform="matrix(0,-1,-1,0,0,0)"/>
 <path style="opacity:0.2;fill:#ffffff" d="M 2,3.5 2,3 C 2,2.446 2.446,2 3,2 l 18,0 c 0.554,0 1,0.446 1,1 l 0,0.5 c 0,-0.554 -0.446,-1 -1,-1 l -18,0 c -0.554,0 -1,0.446 -1,1 z"/>
 <path style="opacity:0.2" d="m 2,21 0,0.5 c 0,0.554 0.446,1 1,1 l 18,0 c 0.554,0 1,-0.446 1,-1 L 22,21 c 0,0.554 -0.446,1 -1,1 L 3,22 C 2.446,22 2,21.554 2,21 Z"/>
 <path d="m 14,6 2,-1 0,14 -2,1 z" style="opacity:0.2"/>
 <path style="fill:#ffffff" d="m 14,5.5 2,-1 0,14 -2,1 z"/>
 <path d="M 17.1245,7.268 18.9905,8.5 6.866,15.5 5,14.268 Z" style="opacity:0.2"/>
 <path style="fill:#ffffff" d="M 17.1245,6.768 18.9905,8 6.866,15 5,13.768 Z"/>
 <path d="M 19.2585,16.268 19.1245,18.5 7,11.5 7.134,9.268 Z" style="opacity:0.2"/>
 <path style="fill:#ffffff" d="M 19.2585,15.768 19.1245,18 7,11 7.134,8.768 Z"/>
</svg>
